src/svg/download.svg

<svg version="1.2" baseProfile="tiny" xmlns="http://www.w3.org/2000/svg" width="24" height="24" viewBox="0 0 24 24"><path d="M16.707 7.404c-.189-.188-.448-.283-.707-.283s-.518.095-.707.283l-2.293 2.293v-6.697c0-.552-.448-1-1-1s-1 .448-1 1v6.697l-2.293-2.293c-.189-.188-.44-.293-.707-.293s-.518.105-.707.293c-.39.39-.39 1.024 0 1.414l4.707 4.682 4.709-4.684c.388-.387.388-1.022-.002-1.412zM20.987 16c0-.105-.004-.211-.039-.316l-2-6c-.136-.409-.517-.684-.948-.684h-.219c-.094.188-.21.368-.367.525l-1.482 1.475h1.348l1.667 5h-13.893l1.667-5h1.348l-1.483-1.475c-.157-.157-.274-.337-.367-.525h-.219c-.431 0-.812.275-.948.684l-2 6c-.035.105-.039.211-.039.316-.013 0-.013 5-.013 5 0 .553.447 1 1 1h16c.553 0 1-.447 1-1 0 0 0-5-.013-5z"/></svg>

<?xml version="1.0" encoding="iso-8859-1"?>
<!-- Generator: Adobe Illustrator 16.2.1, SVG Export Plug-In . SVG Version: 6.00 Build 0)  -->
<svg version="1.2" baseProfile="tiny" id="Layer_1" xmlns="http://www.w3.org/2000/svg" xmlns:xlink="http://www.w3.org/1999/xlink"
	 x="0px" y="0px" width="24px" height="24px" viewBox="0 0 24 24" xml:space="preserve">
<g>
	<path d="M16.707,7.404C16.518,7.216,16.259,7.121,16,7.121s-0.518,0.095-0.707,0.283L13,9.697V3c0-0.552-0.448-1-1-1s-1,0.448-1,1
		v6.697L8.707,7.404C8.518,7.216,8.267,7.111,8,7.111S7.482,7.216,7.293,7.404c-0.39,0.39-0.39,1.024,0,1.414L12,13.5l4.709-4.684
		C17.097,8.429,17.097,7.794,16.707,7.404z"/>
	<path d="M20.987,16c0-0.105-0.004-0.211-0.039-0.316l-2-6C18.812,9.275,18.431,9,18,9h-0.219c-0.094,0.188-0.21,0.368-0.367,0.525
		L15.932,11h1.348l1.667,5H5.054l1.667-5h1.348L6.586,9.525C6.429,9.368,6.312,9.188,6.219,9H6C5.569,9,5.188,9.275,5.052,9.684
		l-2,6C3.017,15.789,3.013,15.895,3.013,16C3,16,3,21,3,21c0,0.553,0.447,1,1,1h16c0.553,0,1-0.447,1-1C21,21,21,16,20.987,16z"/>
</g>
</svg>
